X:1
T: Hornpipe
P:Kerr's 2nd #392
R:Reel
Q: 232
K:Bb
M:4/4
L:1/8
|:db ca Bg Af|Ge Fd Ec DB|F2 GA Bd cB|AB cd ef ga|
db ca Bg Af|Ge Fd Ec DB|F2 GA Bd cA|B2 d2 B4:|
|:Gg ((3g^fg) bg ((3gfg)|d^c de dc BA|GA Bc dc BA|GA Bc dc A^F|
Gg ((3g^fg) bg ((3gfg)|d^c de dc BA|GA Bc dc A^F|GB A^F G4:|
